static/img/kroki/7e318538d57c627745e94d9d6d2dc90e.svg

<?xml version="1.0" encoding="us-ascii" standalone="no"?><svg xmlns="http://www.w3.org/2000/svg" xmlns:xlink="http://www.w3.org/1999/xlink" contentStyleType="text/css" height="374px" preserveAspectRatio="none" style="width:478px;height:374px;" version="1.1" viewBox="0 0 478 374" width="478px" zoomAndPan="magnify"><defs/><g><!--class azure_cosmos_db_restorable_mongo_db_collection--><g id="elem_azure_cosmos_db_restorable_mongo_db_collection"><rect codeLine="23" fill="#3D176E" height="39.7891" id="azure_cosmos_db_restorable_mongo_db_collection" rx="2.5" ry="2.5" style="stroke:#000D19;stroke-width:0.5;" width="464" x="7" y="328.58"/><ellipse cx="22" cy="348.4745" fill="#ADD1B2" rx="11" ry="11" style="stroke:#181818;stroke-width:1.0;"/><path d="M24.9688,354.1152 Q24.3906,354.412 23.75,354.5527 Q23.1094,354.7089 22.4063,354.7089 Q19.9063,354.7089 18.5781,353.0683 Q17.2656,351.412 17.2656,348.287 Q17.2656,345.162 18.5781,343.5058 Q19.9063,341.8495 22.4063,341.8495 Q23.1094,341.8495 23.75,342.0058 Q24.4063,342.162 24.9688,342.4589 L24.9688,345.1777 Q24.3438,344.5995 23.75,344.3339 Q23.1563,344.0527 22.5313,344.0527 Q21.1875,344.0527 20.5,345.1308 Q19.8125,346.1933 19.8125,348.287 Q19.8125,350.3808 20.5,351.4589 Q21.1875,352.5214 22.5313,352.5214 Q23.1563,352.5214 23.75,352.2558 Q24.3438,351.9745 24.9688,351.3964 L24.9688,354.1152 Z " fill="#000000"/><text fill="#D9B8FF" font-family="Helvetica" font-size="17" lengthAdjust="spacing" textLength="422" x="41" y="354.3598">azure_cosmos_db_restorable_mongo_db_collection</text></g><!--class microsoft_resource--><g id="elem_microsoft_resource"><rect codeLine="26" fill="#3D176E" height="39.7891" id="microsoft_resource" rx="2.5" ry="2.5" style="stroke:#000D19;stroke-width:0.5;" width="200" x="139" y="167.79"/><ellipse cx="154" cy="187.6845" fill="#ADD1B2" rx="11" ry="11" style="stroke:#181818;stroke-width:1.0;"/><path d="M156.9688,193.3252 Q156.3906,193.622 155.75,193.7627 Q155.1094,193.9189 154.4063,193.9189 Q151.9063,193.9189 150.5781,192.2783 Q149.2656,190.622 149.2656,187.497 Q149.2656,184.372 150.5781,182.7158 Q151.9063,181.0595 154.4063,181.0595 Q155.1094,181.0595 155.75,181.2158 Q156.4063,181.372 156.9688,181.6689 L156.9688,184.3877 Q156.3438,183.8095 155.75,183.5439 Q155.1563,183.2627 154.5313,183.2627 Q153.1875,183.2627 152.5,184.3408 Q151.8125,185.4033 151.8125,187.497 Q151.8125,189.5908 152.5,190.6689 Q153.1875,191.7314 154.5313,191.7314 Q155.1563,191.7314 155.75,191.4658 Q156.3438,191.1845 156.9688,190.6064 L156.9688,193.3252 Z " fill="#000000"/><text fill="#D9B8FF" font-family="Helvetica" font-size="17" lengthAdjust="spacing" textLength="158" x="173" y="193.5698">microsoft_resource</text></g><!--class resource--><g id="elem_resource"><rect codeLine="29" fill="#3D176E" height="39.7891" id="resource" rx="2.5" ry="2.5" style="stroke:#000D19;stroke-width:0.5;" width="113" x="182.5" y="7"/><ellipse cx="197.5" cy="26.8945" fill="#ADD1B2" rx="11" ry="11" style="stroke:#181818;stroke-width:1.0;"/><path d="M200.4688,32.5352 Q199.8906,32.832 199.25,32.9727 Q198.6094,33.1289 197.9063,33.1289 Q195.4063,33.1289 194.0781,31.4883 Q192.7656,29.832 192.7656,26.707 Q192.7656,23.582 194.0781,21.9258 Q195.4063,20.2695 197.9063,20.2695 Q198.6094,20.2695 199.25,20.4258 Q199.9063,20.582 200.4688,20.8789 L200.4688,23.5977 Q199.8438,23.0195 199.25,22.7539 Q198.6563,22.4727 198.0313,22.4727 Q196.6875,22.4727 196,23.5508 Q195.3125,24.6133 195.3125,26.707 Q195.3125,28.8008 196,29.8789 Q196.6875,30.9414 198.0313,30.9414 Q198.6563,30.9414 199.25,30.6758 Q199.8438,30.3945 200.4688,29.8164 L200.4688,32.5352 Z " fill="#000000"/><text fill="#D9B8FF" font-family="Helvetica" font-size="17" lengthAdjust="spacing" textLength="71" x="216.5" y="32.7798">resource</text></g><!--reverse link microsoft_resource to azure_cosmos_db_restorable_mongo_db_collection--><g id="link_microsoft_resource_azure_cosmos_db_restorable_mongo_db_collection"><path codeLine="32" d="M239,225.84 C239,256.36 239,297.69 239,328.25 " fill="none" id="microsoft_resource-backto-azure_cosmos_db_restorable_mongo_db_collection" style="stroke:#FFAF37;stroke-width:2.0;"/><polygon fill="none" points="239,207.84,233,225.84,245,225.84,239,207.84" style="stroke:#FFAF37;stroke-width:2.0;"/></g><!--reverse link resource to microsoft_resource--><g id="link_resource_microsoft_resource"><path codeLine="33" d="M239,65.05 C239,95.57 239,136.9 239,167.46 " fill="none" id="resource-backto-microsoft_resource" style="stroke:#FFAF37;stroke-width:2.0;"/><polygon fill="none" points="239,47.05,233,65.05,245,65.05,239,47.05" style="stroke:#FFAF37;stroke-width:2.0;"/></g><!--SRC=[bP1FJm8n4CNl-ocQS2O1YGA95o0nUY56l6-wxHIQRJjaEYi1zRlh2fgoovzuVUytyzxCoceGuDUy5Hvy0HIpMDgmbYIzc13XPeOEINICaMOmR9eF6FWgC9SUn2EuDs2hP9DuNLbL1eXHt2JMLAfoILW5lL_F94FyjY1mGisSZ772JBQe698oUboCZ6cIpQMTWUuFxw258McW0zBhzNH_t4IkHbsy-uzOs1s8VlgqEJAqQhOYVgYBBMiYATawzDS_s_5PQct3Kjmcsik-4mMW8tsnaXetDMsaYsbCP210tgvXrheAnYDjXYVXftDmfkhN2Rch27A5qMFCTP4JH4QIXOFSOrXYhIbq3XHR3E8zopuFazugmeY6wnciI47g7cidsFkFRhVxp_YiCTrUctq1]--></g></svg>

<svg xmlns="http://www.w3.org/2000/svg" width="478" height="374" viewBox="0 0 478 374"><rect width="464" height="39.789" x="7" y="328.58" fill="#3D176E" rx="2.5" ry="2.5" style="stroke:#000d19;stroke-width:.5"/><circle cx="22" cy="348.474" r="11" fill="#ADD1B2" style="stroke:#181818;stroke-width:1"/><path d="M24.969 354.115q-.578.297-1.219.438-.64.156-1.344.156-2.5 0-3.828-1.64-1.312-1.657-1.312-4.782t1.312-4.781q1.328-1.656 3.828-1.656.703 0 1.344.156.656.156 1.219.453v2.719q-.625-.579-1.219-.844-.594-.281-1.219-.281-1.343 0-2.031 1.078-.687 1.062-.687 3.156t.687 3.172q.688 1.062 2.031 1.062.625 0 1.219-.265.594-.281 1.219-.86z"/><text x="41" y="354.36" fill="#D9B8FF" font-family="Helvetica" font-size="17" textLength="422">azure_cosmos_db_restorable_mongo_db_collection</text><rect width="200" height="39.789" x="139" y="167.79" fill="#3D176E" rx="2.5" ry="2.5" style="stroke:#000d19;stroke-width:.5"/><circle cx="154" cy="187.685" r="11" fill="#ADD1B2" style="stroke:#181818;stroke-width:1"/><path d="M156.969 193.325q-.578.297-1.219.438-.64.156-1.344.156-2.5 0-3.828-1.64-1.312-1.657-1.312-4.782t1.312-4.781q1.328-1.656 3.828-1.656.703 0 1.344.156.656.156 1.219.453v2.719q-.625-.578-1.219-.844-.594-.281-1.219-.281-1.344 0-2.031 1.078-.687 1.062-.687 3.156t.687 3.172q.688 1.062 2.031 1.062.625 0 1.219-.265.594-.281 1.219-.86z"/><text x="173" y="193.57" fill="#D9B8FF" font-family="Helvetica" font-size="17" textLength="158">microsoft_resource</text><rect width="113" height="39.789" x="182.5" y="7" fill="#3D176E" rx="2.5" ry="2.5" style="stroke:#000d19;stroke-width:.5"/><circle cx="197.5" cy="26.895" r="11" fill="#ADD1B2" style="stroke:#181818;stroke-width:1"/><path d="M200.469 32.535q-.578.297-1.219.438-.64.156-1.344.156-2.5 0-3.828-1.64-1.312-1.657-1.312-4.782t1.312-4.781q1.328-1.656 3.828-1.656.703 0 1.344.156.656.156 1.219.453v2.719q-.625-.578-1.219-.844-.594-.281-1.219-.281-1.344 0-2.031 1.078-.687 1.062-.687 3.156t.687 3.172q.688 1.062 2.031 1.062.625 0 1.219-.265.594-.281 1.219-.86z"/><text x="216.5" y="32.78" fill="#D9B8FF" font-family="Helvetica" font-size="17" textLength="71">resource</text><path fill="none" d="M239 225.84v102.41m0-120.41-6 18h12zm0-142.79v102.41m0-120.41-6 18h12z" style="stroke:#ffaf37;stroke-width:2"/></svg>
